X:199
%%etbk:tnset id:62,pos:1,rep:3x,ant:
%%etbk:tnset id:263,pos:4,rep:2x+A-Stop,ant:
%%etbk:wsite http://www.thesession.org/tunes/display/118
%%etbk:pldat 2016-06-22T16:08,2016-06-20T18:28,2016-06-16T19:07,2016-03-05T15:32,2016-02-23T17:32,2015-06-26T17:56,2015-06-24T19:15,2015-06-22T18:28,2014-08-21T19:04,2014-08-20T19:21,2014-06-25T15:46,2014-06-13T15:43,2014-06-03T16:01,2014-02-26T16:53,2013-05-21T16:02
T: Wise Maid, The
Z: Piano Box Version by Martin Fleischmann
H: Created 2013-02-19 /  Last Modified 2013-02-19
M: 4/4
L: 1/8
R: reel
K: Dmaj
|: "D"!3!F!2!F!3!FG !3!FEDE | !3!F!4!AAB !4!A!3!FE!1!D | !5!d2!2!eg !3!f!1!d!5!e!3!c | !4!d!2!B!1!A!2!F "A"!5!B!1!E !3!(3E!2!E!1!E |
"D"!3!F2FG !3!FEDE | !3!F!4!AAB !4!A!3!FE!1!D | !5!d2!2!eg !3!f!1!d!5!e!3!c | "A"!4!d!2!B!1!A!2!F "D"!1!D4:|
|: "D"!5!d2!2!A!1!G !2!F!1!D!2!F!3!A | !5!d!3!f!5!af "A"!4!gfeg | "D"!3!f!1!A!2!d!4!f "A"!3!e!1!A!2!c!3!e | "D"!1!d!3!fe!1!d "A"!3!c!1!A A2 |
"G"!4!B!1!D!2!GB "D"!3!A!1!D!2!F!3!A | !5!d!3!f!5!af !4!gfe!1!d | "G"!2!B!4!d!3!c!5!e "D"!4!d!2!B!1!A!3!G | "A"!2!FF!1!EF "D"!1!D4:|


